icons/communication/comment-text-24.svg

<svg width="24" height="24" viewBox="0 0 24 24" fill="none" xmlns="http://www.w3.org/2000/svg">
<path fill-rule="evenodd" clip-rule="evenodd" d="M1 3.75C1 2.7835 1.7835 2 2.75 2H21.25C22.2165 2 23 2.7835 23 3.75V16.25C23 17.2165 22.2165 18 21.25 18H11.1406C11.0778 18 11.0173 18.0236 10.9712 18.0662L7.09724 21.6374C6.29633 22.3757 5 21.8076 5 20.7183V18H2.75C1.7835 18 1 17.2165 1 16.25V3.75ZM2.75 3.5C2.61193 3.5 2.5 3.61193 2.5 3.75V16.25C2.5 16.3881 2.61193 16.5 2.75 16.5H5.5C6.05228 16.5 6.5 16.9477 6.5 17.5V20.1478L9.95446 16.9633C10.2776 16.6654 10.7011 16.5 11.1406 16.5H21.25C21.3881 16.5 21.5 16.3881 21.5 16.25V3.75C21.5 3.61193 21.3881 3.5 21.25 3.5H2.75Z" fill="black"/>
<path fill-rule="evenodd" clip-rule="evenodd" d="M6 7.75C6 7.33579 6.33579 7 6.75 7H12.25C12.6642 7 13 7.33579 13 7.75C13 8.16421 12.6642 8.5 12.25 8.5H6.75C6.33579 8.5 6 8.16421 6 7.75ZM6 12.25C6 11.8358 6.33579 11.5 6.75 11.5H16.25C16.6642 11.5 17 11.8358 17 12.25C17 12.6642 16.6642 13 16.25 13H6.75C6.33579 13 6 12.6642 6 12.25Z" fill="black"/>
</svg>

<svg xmlns="http://www.w3.org/2000/svg" width="24" height="24"><path fill-rule="evenodd" d="M1 3.75C1 2.784 1.784 2 2.75 2h18.5c.966 0 1.75.784 1.75 1.75v12.5A1.75 1.75 0 0121.25 18H11.14a.25.25 0 00-.169.066l-3.874 3.571c-.8.739-2.097.17-2.097-.919V18H2.75A1.75 1.75 0 011 16.25V3.75zm1.75-.25a.25.25 0 00-.25.25v12.5c0 .138.112.25.25.25H5.5a1 1 0 011 1v2.648l3.454-3.185a1.75 1.75 0 011.187-.463H21.25a.25.25 0 00.25-.25V3.75a.25.25 0 00-.25-.25H2.75z"/><path fill-rule="evenodd" d="M6 7.75A.75.75 0 016.75 7h5.5a.75.75 0 010 1.5h-5.5A.75.75 0 016 7.75zm0 4.5a.75.75 0 01.75-.75h9.5a.75.75 0 010 1.5h-9.5a.75.75 0 01-.75-.75z"/></svg>
